lib/preview/nrk-logo-preview-nrk-p3-urort-title-below.svg

<svg width="78" height="32" viewBox="0 0 78 32" fill="none" xmlns="http://www.w3.org/2000/svg">
<path fill-rule="evenodd" clip-rule="evenodd" d="M0 0H32V32H0V0ZM10.5474 14.6379H7.61731V25.2838H10.5474V14.6379ZM14.2626 14.6379H10.9721C10.9721 14.6379 12.8416 17.7026 12.8627 17.7412C13.0059 17.9842 13.0147 18.1334 12.8748 18.3678L10.9721 21.4827H14.2626C14.2626 21.4827 15.8492 18.8916 16.0661 18.5319C16.2814 18.172 16.2717 17.9483 16.0574 17.579C15.8385 17.2065 15.8244 17.1834 14.5371 15.0853L14.537 15.0853L14.5368 15.0849L14.5365 15.0843L14.5364 15.0843L14.2626 14.6379ZM23.4775 14.6379C23.4775 14.6379 24.4568 16.2134 24.5674 16.4017C24.7823 16.7722 24.7921 16.9965 24.576 17.3575C24.4251 17.6077 23.1306 19.75 23.1306 19.75C23.3677 20.137 23.6836 20.6431 23.961 21.0876L23.9612 21.088L23.9616 21.0886C24.2466 21.5453 24.4909 21.9367 24.5673 22.0667C24.7822 22.4373 24.792 22.6615 24.576 23.0226C24.5348 23.0909 24.451 23.2316 24.3411 23.4161C24.0484 23.9074 23.5705 24.7096 23.2191 25.2838H20.2127L21.8588 22.582L20.1514 19.7202L21.6825 17.2147H17.9735L16.4351 14.6379H23.4775ZM17.7928 20.1046C17.3295 20.8607 16.5543 22.1274 16.4092 22.3745C16.2022 22.7314 16.1928 22.9474 16.4009 23.2951C16.5461 23.5361 17.3274 24.813 17.793 25.5735C18.2585 24.8129 19.0398 23.536 19.185 23.2951C19.3931 22.9473 19.3837 22.7314 19.1767 22.3745C19.0314 22.1274 18.2562 20.8607 17.7928 20.1046ZM7.58301 7.00474V12.995H9.54901V7.00474H7.58301ZM13.3544 12.995L12.2238 7.95812C12.1694 7.69149 12.025 7.4517 11.8147 7.27897C11.6047 7.09868 11.3362 7.00115 11.0595 7.00474H9.85276L11.2028 12.995H13.3544ZM13.6498 7.00474V12.995H15.6158V7.00474H13.6498ZM16.4975 9.12242C16.6804 9.22937 16.8888 9.28478 17.1005 9.28275C17.1005 9.28275 17.1005 9.28274 17.1004 9.28274H17.1007C17.1006 9.28274 17.1006 9.28275 17.1005 9.28275C17.3112 9.28522 17.5185 9.22974 17.6998 9.12242C17.8784 9.01724 18.0267 8.86752 18.1301 8.68791C18.2371 8.505 18.2925 8.29657 18.2906 8.08469C18.2929 7.87411 18.2374 7.66692 18.1301 7.48567C18.0256 7.30801 17.8775 7.15991 17.6998 7.05538C17.5185 6.94825 17.3113 6.89279 17.1007 6.89506C16.8889 6.89312 16.6804 6.94853 16.4975 7.05538C16.318 7.15901 16.1684 7.30723 16.063 7.48567C15.9556 7.66687 15.9001 7.87409 15.9025 8.08469C15.9004 8.29659 15.9559 8.50506 16.063 8.68791C16.1672 8.86831 16.3171 9.01816 16.4975 9.12242ZM18.5943 7.00474V12.995H20.5605V7.00474H18.5943ZM23.176 10.485C23.0972 10.353 23.055 10.2841 23.0495 10.2783H23.0492C22.9888 10.1974 22.9536 10.1006 22.9481 9.99986C22.9516 9.90391 22.9808 9.81067 23.0325 9.72976L24.7033 7.0046H22.5432C22.4083 7.22415 22.2859 7.42383 22.176 7.60363C22.0667 7.78362 21.9501 7.97627 21.8262 8.18157C21.7022 8.38687 21.5798 8.58796 21.4588 8.78482C21.3379 8.98168 21.2324 9.15181 21.1424 9.29524C21.0524 9.43867 20.9905 9.53852 20.9568 9.59477C20.8768 9.71552 20.8303 9.85528 20.8219 9.99986C20.8324 10.1505 20.8818 10.2959 20.9652 10.4217C20.9989 10.4724 21.0594 10.5709 21.1468 10.717C21.2338 10.8631 21.3378 11.0332 21.4588 11.2274C21.5799 11.4217 21.7023 11.6214 21.8262 11.8265C21.9497 12.0318 22.0663 12.223 22.176 12.4002C22.2857 12.5774 22.4081 12.7756 22.5432 12.995H24.7033C24.5455 12.7363 24.4049 12.5043 24.2814 12.2989C24.1575 12.0936 24.0252 11.8756 23.8847 11.6451C23.7442 11.4145 23.6106 11.1966 23.484 10.9912C23.3575 10.7857 23.2549 10.617 23.176 10.485Z" fill="white"/>
<path d="M46.0455 16.2489C46.0528 16.7531 45.9931 17.256 45.8681 17.7444C45.7684 18.1415 45.5807 18.5111 45.3189 18.8259C45.0566 19.1229 44.7219 19.347 44.3473 19.4765C43.8822 19.6332 43.3932 19.7076 42.9025 19.6961C42.3307 19.7091 41.762 19.6086 41.2293 19.4004C40.7613 19.208 40.3776 18.8543 40.1479 18.4034C39.8734 17.8087 39.7459 17.1567 39.7761 16.5024V9H38.0018V16.7908C37.9828 17.4917 38.1125 18.1886 38.3823 18.8357C38.6126 19.3694 38.9728 19.8371 39.43 20.196C39.8901 20.5472 40.4158 20.8028 40.9762 20.948C41.5827 21.1082 42.2076 21.1876 42.8349 21.1843C43.7773 21.2211 44.7135 21.0175 45.5555 20.5928C46.2435 20.2211 46.7964 19.6415 47.1355 18.9368C47.4946 18.1531 47.6707 17.2979 47.6506 16.4359V9.00085H46.0453L46.0455 16.2489Z" fill="white"/>
<path d="M53.7003 12.3204C53.3842 12.405 53.0824 12.5359 52.8047 12.7091C52.5164 12.8889 52.2499 13.1016 52.0105 13.3428C51.9705 13.3825 51.9317 13.4273 51.8922 13.4689V12.2103L50.1686 12.4638V20.9973H51.8922V14.6135C52.0203 14.5239 52.1528 14.4409 52.2893 14.3648C52.4584 14.2719 52.6334 14.19 52.8132 14.1198C52.9876 14.0522 53.165 13.9931 53.3455 13.9424C53.5309 13.8907 53.7202 13.854 53.9115 13.8325C54.1163 13.8101 54.3226 13.8044 54.5283 13.8156L54.7311 12.2275C54.3847 12.2025 54.0366 12.2339 53.7003 12.3204Z" fill="white"/>
<path d="M63.5518 11.9907L62.6055 12.9893C62.4811 12.8967 62.3514 12.8115 62.2169 12.7342C61.5105 12.3581 60.7187 12.1719 59.9188 12.1937C59.1145 12.1755 58.3194 12.3676 57.6122 12.7511C56.9594 13.1164 56.4256 13.662 56.0745 14.3226C55.6928 15.0637 55.5039 15.889 55.5253 16.7224C55.5036 17.55 55.6834 18.3704 56.0491 19.1131C56.146 19.2971 56.2575 19.473 56.3823 19.6392L55.4408 20.6427L56.2181 21.3521L57.1193 20.3782C57.2493 20.4753 57.3855 20.5637 57.5271 20.6427C58.2168 21.0047 58.9874 21.1849 59.7661 21.1662C60.5757 21.1833 61.3759 20.9912 62.0896 20.6086C62.7565 20.2402 63.3046 19.6893 63.6695 19.0205C64.0673 18.2722 64.2652 17.434 64.2441 16.5869C64.2635 15.7801 64.0805 14.9813 63.7118 14.2634C63.6115 14.0795 63.4968 13.9039 63.3688 13.7382L64.3455 12.7004L63.5518 11.9907ZM57.6544 14.9143C57.8439 14.4911 58.1597 14.137 58.5585 13.9004C58.9792 13.6669 59.4547 13.5503 59.9357 13.5624C60.3181 13.5537 60.6981 13.6257 61.0509 13.7737C61.2409 13.8591 61.4163 13.9739 61.5705 14.1139L57.6392 18.3598C57.4201 17.807 57.3161 17.2153 57.3334 16.621C57.3133 16.0354 57.423 15.4526 57.6544 14.9143ZM62.1155 18.395C61.9222 18.8319 61.6011 19.2001 61.1946 19.4511C60.7868 19.6872 60.3222 19.8071 59.8512 19.7978C59.3842 19.8087 58.9239 19.6855 58.5247 19.4429C58.4122 19.3706 58.3071 19.2875 58.2107 19.1948L62.1439 14.9481C62.2025 15.0827 62.2523 15.221 62.2929 15.3621C62.4042 15.7722 62.4582 16.1958 62.4535 16.6207C62.4735 17.2302 62.3581 17.8366 62.1155 18.3961V18.395Z" fill="white"/>
<path d="M69.939 12.3204C69.6229 12.405 69.3211 12.536 69.0434 12.7091C68.7551 12.889 68.4886 13.1016 68.2492 13.3428C68.2092 13.3825 68.1703 13.4273 68.1309 13.4689V12.2103L66.4073 12.4638V20.9973H68.1309V14.6135C68.259 14.5239 68.3915 14.4409 68.528 14.3648C68.6971 14.2719 68.8721 14.19 69.0518 14.1198C69.2264 14.0522 69.4039 13.9931 69.5841 13.9424C69.7696 13.8908 69.9589 13.8541 70.1502 13.8325C70.355 13.8101 70.5613 13.8044 70.767 13.8156L70.9697 12.2275C70.6234 12.2025 70.2753 12.2339 69.939 12.3204Z" fill="white"/>
<path d="M77.273 19.5866C77.1938 19.6032 77.1065 19.6204 77.0108 19.637L76.7238 19.6877C76.6314 19.7041 76.5383 19.7154 76.4447 19.7215C76.3546 19.7274 76.2698 19.7299 76.1912 19.7299C75.9323 19.7371 75.6751 19.6851 75.4393 19.5778C75.2364 19.4818 75.0682 19.3254 74.9577 19.13C74.8393 18.9097 74.781 18.6621 74.7887 18.4122V13.7311H77.1713L77.3574 12.3793H74.7887V9.70915L73.0651 10.3175V12.3793H71.764L71.5781 13.7311H73.0651V18.7667C73.0575 19.1026 73.109 19.4372 73.2172 19.7553C73.3042 20.0069 73.4391 20.2393 73.6146 20.4396C73.7753 20.6181 73.9708 20.7619 74.1891 20.8621C74.4125 20.9647 74.648 21.0385 74.8901 21.0818C75.1298 21.1259 75.3729 21.1485 75.6167 21.1493C75.7969 21.1493 75.9741 21.1437 76.1493 21.1327C76.3244 21.1217 76.4841 21.1046 76.6308 21.0818C76.7776 21.0589 76.915 21.0336 77.0446 21.006C77.1741 20.9784 77.2839 20.9525 77.3741 20.9297L77.4757 19.5274C77.4098 19.5525 77.342 19.5723 77.273 19.5866Z" fill="white"/>
</svg>

<svg xmlns="http://www.w3.org/2000/svg" viewBox="0 0 78 32"><path fill="#fff" fill-rule="evenodd" d="M0 0h32v32H0V0Zm10.547 14.638h-2.93v10.646h2.93V14.638Zm3.716 0h-3.29s1.869 3.065 1.89 3.103c.143.243.152.392.012.627l-1.903 3.115h3.29s1.587-2.591 1.804-2.951c.215-.36.206-.584-.009-.953-.218-.373-.233-.396-1.52-2.494l-.274-.447Zm9.214 0s.98 1.575 1.09 1.764c.215.37.225.595.009.956l-1.445 2.392c.237.387.553.893.83 1.338.286.457.53.849.606.979.215.37.225.595.009.956l-.235.393c-.293.491-.77 1.294-1.122 1.868h-3.006l1.646-2.702-1.708-2.862 1.532-2.505h-3.71l-1.538-2.577h7.043Zm-5.684 5.467c-.463.756-1.239 2.022-1.384 2.27-.207.356-.216.572-.008.92.145.241.926 1.518 1.392 2.278.466-.76 1.247-2.037 1.392-2.278.208-.348.199-.564-.008-.92-.146-.248-.92-1.514-1.384-2.27Zm-10.21-13.1v5.99h1.966v-5.99H7.583Zm5.771 5.99-1.13-5.037a1.185 1.185 0 0 0-.41-.679 1.137 1.137 0 0 0-.755-.274H9.854l1.35 5.99h2.151Zm.296-5.99v5.99h1.966v-5.99H13.65Zm2.847 2.117c.183.107.392.163.604.16.21.003.418-.052.599-.16a1.198 1.198 0 0 0 .59-1.037 1.151 1.151 0 0 0-.16-.6 1.212 1.212 0 0 0-.43-.43 1.153 1.153 0 0 0-.6-.16 1.204 1.204 0 0 0-1.038.59 1.15 1.15 0 0 0-.16.6 1.189 1.189 0 0 0 .595 1.038Zm2.097-2.117v5.99h1.966v-5.99h-1.966Zm4.582 3.48a4.645 4.645 0 0 0-.127-.207.512.512 0 0 1-.1-.278.538.538 0 0 1 .083-.27l1.671-2.725h-2.16a303.862 303.862 0 0 0-.717 1.177 90.969 90.969 0 0 1-.87 1.413.82.82 0 0 0-.134.405c.01.15.06.296.143.422.034.05.094.149.182.295.087.146.19.316.312.51.12.195.243.394.367.6.124.205.24.396.35.573l.367.595h2.16l-.422-.696a173.957 173.957 0 0 0-.797-1.308c-.127-.205-.23-.374-.308-.506Z" clip-rule="evenodd"/><path fill="#fff" d="M46.045 16.249a5.699 5.699 0 0 1-.177 1.495c-.1.398-.287.767-.55 1.082a2.298 2.298 0 0 1-.97.65 4.216 4.216 0 0 1-1.445.22 4.326 4.326 0 0 1-1.674-.296 2.117 2.117 0 0 1-1.081-.997 4.086 4.086 0 0 1-.372-1.9V9h-1.774v7.79c-.02.702.11 1.399.38 2.046.23.533.59 1.001 1.048 1.36.46.351.986.607 1.546.752a7.13 7.13 0 0 0 1.859.236 5.56 5.56 0 0 0 2.72-.591 3.711 3.711 0 0 0 1.58-1.656c.36-.784.536-1.64.516-2.501V9h-1.606v7.248ZM53.7 12.32a3.308 3.308 0 0 0-.895.39c-.289.179-.555.392-.794.633-.04.04-.08.084-.119.126V12.21l-1.723.254v8.533h1.723v-6.383c.128-.09.26-.173.397-.25.17-.092.344-.174.524-.244.175-.068.352-.127.532-.178a3.607 3.607 0 0 1 1.183-.126l.203-1.589a3.21 3.21 0 0 0-1.03.093ZM63.552 11.99l-.947 1a3.932 3.932 0 0 0-.388-.256 4.622 4.622 0 0 0-2.298-.54 4.62 4.62 0 0 0-2.307.557 3.896 3.896 0 0 0-1.538 1.572 4.963 4.963 0 0 0-.549 2.4 5.109 5.109 0 0 0 .524 2.39c.097.184.209.36.333.526l-.941 1.004.777.71.901-.975c.13.097.267.186.408.265.69.362 1.46.542 2.24.523.809.017 1.609-.175 2.323-.557a4.007 4.007 0 0 0 1.58-1.589 4.923 4.923 0 0 0 .574-2.433 4.832 4.832 0 0 0-.532-2.324c-.1-.184-.215-.36-.343-.525l.977-1.038-.794-.71Zm-5.898 2.924c.19-.423.506-.777.904-1.014.421-.233.897-.35 1.378-.338.382-.008.762.064 1.115.212.19.085.365.2.52.34l-3.932 4.246a4.374 4.374 0 0 1-.306-1.739c-.02-.586.09-1.168.321-1.707Zm4.461 3.481a2.367 2.367 0 0 1-.92 1.056 2.58 2.58 0 0 1-1.344.347 2.444 2.444 0 0 1-1.326-.355 2.059 2.059 0 0 1-.314-.248l3.933-4.247c.059.135.108.273.149.414.111.41.165.834.16 1.259.02.61-.095 1.216-.338 1.775v-.001ZM69.939 12.32a3.312 3.312 0 0 0-.896.39c-.288.179-.554.392-.794.633-.04.04-.079.084-.118.126V12.21l-1.724.254v8.533h1.724v-6.383c.128-.09.26-.173.397-.25.17-.092.344-.174.524-.244.174-.068.352-.127.532-.178a3.634 3.634 0 0 1 1.183-.126l.203-1.589a3.21 3.21 0 0 0-1.031.093ZM77.273 19.587c-.08.016-.166.033-.262.05l-.287.05a2.543 2.543 0 0 1-.28.034c-.09.006-.174.009-.253.009a1.701 1.701 0 0 1-.752-.152 1.088 1.088 0 0 1-.481-.448 1.424 1.424 0 0 1-.17-.718v-4.68h2.383l.186-1.353H74.79V9.71l-1.724.609v2.061h-1.301l-.186 1.352h1.487v5.036c-.007.336.044.67.152.988.087.252.222.484.398.685.16.178.356.322.574.422.224.103.459.177.701.22.24.044.483.066.727.067.18 0 .357-.005.532-.016.175-.011.335-.028.482-.051a7.634 7.634 0 0 0 .743-.152l.102-1.403a1.325 1.325 0 0 1-.203.06Z"/></svg>
